source/assets/images/icons/education.svg

<svg xmlns="http://www.w3.org/2000/svg" viewBox="0 0 20 20" class="h-5 w-5">
	<path d="M3.33 8L10 12l10-6-10-6L0 6h10v2H3.33zM0 8v8l2-2.22V9.2L0 8zm10 12l-5-3-2-1.2v-6l7 4.2 7-4.2v6L10 20z"/>
</svg>

<?xml version="1.0" encoding="UTF-8" standalone="no"?>
<!DOCTYPE svg PUBLIC "-//W3C//DTD SVG 1.1//EN" "http://www.w3.org/Graphics/SVG/1.1/DTD/svg11.dtd">
<svg width="100%" height="100%" viewBox="0 0 20 20" version="1.1" xmlns="http://www.w3.org/2000/svg" xmlns:xlink="http://www.w3.org/1999/xlink" xml:space="preserve" xmlns:serif="http://www.serif.com/" style="fill-rule:evenodd;clip-rule:evenodd;stroke-linejoin:round;stroke-miterlimit:2;">
    <path d="M3.33,8L10,12L20,6L10,0L0,6L10,6L10,8L3.33,8ZM0,8L0,16L2,13.78L2,9.2L0,8ZM10,20L3,15.8L3,9.8L10,14L17,9.8L17,15.8L10,20Z" style="fill-rule:nonzero;"/>
</svg>
